X: 34865
T: Robbie Hannan's
R: reel
M: 4/4
K: Dmajor
dAAG FDFA|GBed cABc|1 dAAG FDDg|fdec d2:|
[2 dedA (3Bcd AG|FAEA DEFA||
defg afdA|GBed cAAg|1 fgaf dAGF|GBec dfag:|
[2 fdge afbg|fgec d2||

